apps/www/public/images/logos/publicity/archive/gopuff.svg

<svg width="83" height="28" viewBox="0 0 83 28" fill="none" xmlns="http://www.w3.org/2000/svg">
<g clip-path="url(#clip0_117_150)">
<path d="M57.5049 7.28413V15.0856C57.5049 17.1048 56.8419 18.3062 55.2848 18.3062C53.7354 18.3062 53.0648 17.1048 53.0648 15.0856V7.28413H48.6471V15.3824C48.6471 19.6233 51.2993 21.3748 55.2774 21.3748C58.5628 21.3748 61.9077 19.6233 61.9077 15.3824V7.28413C61.9151 7.28413 57.5049 7.28413 57.5049 7.28413ZM23.8769 6.97293C19.3178 6.97293 16.2931 9.83158 16.2931 14.2752C16.2931 18.7333 19.4965 21.3748 23.6162 21.3748C27.4155 21.3748 31.1032 19.0733 31.1032 14.0363C31.1032 9.88224 28.2201 6.97293 23.8769 6.97293ZM23.7429 18.3279C21.8581 18.3279 20.8448 16.5477 20.8448 14.1811C20.8448 12.133 21.6494 10.0342 23.7577 10.0342C25.7542 10.0342 26.5588 12.133 26.5588 14.1666C26.5662 16.6561 25.4712 18.3279 23.7429 18.3279ZM13.1494 6.31436C11.6669 7.29861 11.2795 8.80392 11.2795 8.80392C10.4749 7.81968 8.81363 7.03807 6.86926 7.03807C3.62119 7.03807 0.224121 9.85329 0.224121 14.2969C0.224121 18.241 3.09225 21.2734 6.86926 21.2734C8.43369 21.2734 9.49156 20.8971 10.3334 20.0865V20.3832C10.3334 22.8873 8.73913 24.0091 6.64577 24.0091C4.5971 24.0091 3.15185 23.3505 2.25045 22.8512L1.37882 26.1078C2.55588 26.7013 4.88763 27.2802 6.7575 27.2802C8.85088 27.2802 10.9591 26.8894 12.5012 25.5939C14.1104 24.2189 14.6617 22.0406 14.6617 19.3991V13.2982C14.6914 11.1849 15.4663 9.70131 16.4197 8.65193C16.4197 8.6447 13.1494 6.31436 13.1494 6.31436ZM7.68128 18.3713C5.7965 18.3713 4.78333 16.5911 4.78333 14.2245C4.78333 12.1764 5.58791 10.0776 7.69618 10.0776C9.67779 10.0921 10.4824 12.1764 10.4824 14.21C10.4824 16.6996 9.40216 18.3713 7.68128 18.3713ZM39.8789 6.97293C35.1484 6.97293 32.5708 10.0198 32.5708 14.5285V26.9762H36.981V20.159C37.7706 20.955 39.0296 21.3964 40.7132 21.3964C43.8719 21.3964 47.1721 19.0371 47.1721 14.0146C47.1721 9.6 44.1773 6.97293 39.8789 6.97293ZM39.8639 18.3279C37.9792 18.3279 36.966 16.5477 36.966 14.1811C36.966 12.133 37.7706 10.0342 39.8789 10.0342C41.8754 10.0342 42.68 12.133 42.68 14.1666C42.6576 16.6561 41.5848 18.3279 39.8639 18.3279ZM82.5954 4.34587V1.06023C81.9847 0.886543 81.2248 0.763513 80.2638 0.763513C78.9749 0.763513 77.4477 1.12537 76.3377 2.13856C75.0787 3.28203 74.5498 5.113 74.5498 6.74859V7.26241H69.9906V6.56766C69.9236 3.2386 73.2759 4.20837 73.6632 4.3314V1.04576C73.0449 0.872069 72.2851 0.749039 71.324 0.749039C70.0353 0.749039 68.5081 1.11089 67.3981 2.12408C66.1391 3.26754 65.6102 5.0913 65.6102 6.73411V7.24795H63.7254V10.4106H65.6102V21.0635C65.6102 23.9873 63.5167 23.5675 62.5856 23.4229L62.1163 26.5855C62.5633 26.7591 63.2784 26.9328 64.001 26.9328C65.9975 26.9473 67.413 26.3538 68.3665 25.4493C69.5584 24.3058 70.013 22.6629 70.013 21.0346L70.0427 10.4178H74.5647V21.0708C74.6318 24.1537 72.151 23.5241 71.5402 23.4301L71.0709 26.5926C71.5178 26.7663 72.2329 26.94 72.9555 26.94C74.9521 26.9546 76.3676 26.3611 77.321 25.4564C78.513 24.313 78.96 22.6702 78.96 21.0419L78.9899 10.425H82.6104V7.28413H78.9376V6.58214C78.9825 3.21688 82.2081 4.23731 82.5954 4.34587Z" fill="#B4B4B4"/>
</g>
<defs>
<clipPath id="clip0_117_150">
<rect width="82.3863" height="26.5312" fill="white" transform="translate(0.224121 0.749039)"/>
</clipPath>
</defs>
</svg>

<svg xmlns="http://www.w3.org/2000/svg" width="83" height="28" fill="none" viewBox="0 0 83 28"><g clip-path="url(#a)"><path fill="#b4b4b4" d="M57.505 7.284v7.802c0 2.019-.663 3.22-2.22 3.22-1.55 0-2.22-1.201-2.22-3.22V7.284h-4.418v8.098c0 4.241 2.652 5.993 6.63 5.993 3.286 0 6.63-1.752 6.63-5.993V7.284zm-33.628-.311c-4.56 0-7.584 2.859-7.584 7.302 0 4.458 3.204 7.1 7.323 7.1 3.8 0 7.487-2.302 7.487-7.339 0-4.154-2.883-7.063-7.226-7.063m-.134 11.355c-1.885 0-2.898-1.78-2.898-4.147 0-2.048.804-4.147 2.913-4.147 1.996 0 2.8 2.099 2.8 4.133.008 2.49-1.087 4.16-2.815 4.16M13.149 6.314c-1.482.985-1.87 2.49-1.87 2.49-.804-.984-2.465-1.766-4.41-1.766-3.248 0-6.645 2.815-6.645 7.259 0 3.944 2.868 6.976 6.645 6.976 1.565 0 2.623-.376 3.464-1.186v.296c0 2.504-1.594 3.626-3.687 3.626-2.049 0-3.494-.659-4.396-1.158l-.871 3.257c1.177.593 3.509 1.172 5.379 1.172 2.093 0 4.201-.39 5.743-1.686 1.61-1.375 2.16-3.553 2.16-6.195v-6.1c.03-2.114.805-3.598 1.759-4.647 0-.007-3.27-2.338-3.27-2.338M7.681 18.371c-1.884 0-2.898-1.78-2.898-4.146 0-2.049.805-4.147 2.913-4.147 1.982.014 2.786 2.098 2.786 4.132 0 2.49-1.08 4.161-2.8 4.161M39.88 6.973c-4.73 0-7.308 3.047-7.308 7.555v12.448h4.41V20.16c.79.796 2.049 1.237 3.732 1.237 3.159 0 6.46-2.359 6.46-7.381 0-4.415-2.996-7.042-7.294-7.042m-.015 11.355c-1.885 0-2.898-1.78-2.898-4.147 0-2.048.805-4.147 2.913-4.147 1.996 0 2.801 2.099 2.801 4.133-.022 2.49-1.095 4.16-2.816 4.16M82.595 4.346V1.06c-.61-.173-1.37-.296-2.331-.296-1.29 0-2.816.361-3.926 1.375-1.26 1.143-1.788 2.974-1.788 4.61v.513h-4.56v-.694c-.066-3.33 3.286-2.36 3.673-2.237V1.046c-.618-.174-1.378-.297-2.339-.297-1.289 0-2.816.362-3.926 1.375-1.259 1.144-1.788 2.967-1.788 4.61v.514h-1.885v3.163h1.885v10.653c0 2.923-2.093 2.503-3.024 2.359l-.47 3.163a5.5 5.5 0 0 0 1.885.347c1.996.014 3.412-.58 4.365-1.484 1.192-1.143 1.647-2.786 1.647-4.414l.03-10.617h4.522V21.07c.067 3.083-2.414 2.453-3.025 2.36l-.47 3.162a5.5 5.5 0 0 0 1.886.347c1.996.015 3.412-.579 4.365-1.484 1.192-1.143 1.639-2.786 1.639-4.414l.03-10.617h3.62v-3.14h-3.672v-.703c.044-3.365 3.27-2.345 3.657-2.236"/></g><defs><clipPath id="a"><path fill="#fff" d="M.224.749H82.61V27.28H.224z"/></clipPath></defs></svg>
